azure-icons/general-10-Quickstart-Center.svg

<svg xmlns="http://www.w3.org/2000/svg" width="18" height="18"><defs><linearGradient id="a" x1="8.47" y1="2.89" x2="14.96" y2="9.62" gradientUnits="userSpaceOnUse"><stop offset="0" stop-color="#dfa500"/><stop offset=".28" stop-color="#efb700"/><stop offset=".51" stop-color="#ffca00"/><stop offset="1" stop-color="#e1a800"/></linearGradient><linearGradient id="b" x1="6.86" y1="11.19" x2="-.99" y2="18.81" gradientUnits="userSpaceOnUse"><stop offset="0" stop-color="#faa21d"/><stop offset=".24" stop-color="#f99d1a"/><stop offset=".51" stop-color="#f69012"/><stop offset=".8" stop-color="#f17905"/><stop offset=".88" stop-color="#ef7100"/></linearGradient></defs><path d="M4.07 10.44a5.66 5.66 0 00-3-1.14.28.28 0 01-.27-.41 5.35 5.35 0 011.51-1.71 4.87 4.87 0 014.4-.85 1.67 1.67 0 01.62.27zM7.7 14.06l3.84-3.26a1.82 1.82 0 01.27.63 4.91 4.91 0 01-.86 4.4 5.21 5.21 0 01-1.71 1.48.28.28 0 01-.41-.31 5.73 5.73 0 00-1.13-2.94z" fill="#f78d1e"/><path d="M17.38.27A24.27 24.27 0 004 10.31L7.69 14A24.27 24.27 0 0017.73.62a.29.29 0 00-.35-.35z" fill="#fcd116"/><path d="M17.38.27A24.27 24.27 0 004 10.31L7.69 14A24.27 24.27 0 0017.73.62a.29.29 0 00-.35-.35z" fill="url(#a)"/><path d="M17.38.27a22 22 0 00-4.45 1.83l3 3a22 22 0 001.8-4.48.29.29 0 00-.35-.35z" fill="#0078d4"/><path d="M.26 17.44A10.32 10.32 0 014 10.31L7.69 14a10.32 10.32 0 01-7.13 3.74.28.28 0 01-.3-.3z" fill="url(#b)"/><circle cx="11.42" cy="6.58" r="1.91" fill="#dfa500"/><circle cx="11.42" cy="6.58" r="1.43" fill="#f2f2f2"/><path d="M5.16 13.59a3 3 0 01-1.33.59 3.3 3.3 0 01.58-1.34L8 9.24l.75.75z" fill="#d15900"/></svg>

<svg id="bd1d72a3-1f46-41dd-9c1e-f197eed5bd13"  xmlns="http://www.w3.org/2000/svg"  width="18" height="18" viewBox="0 0 18 18">
  <defs>
    <linearGradient id="e5071660-aef6-4ef7-b2c3-5b03145c6e10" x1="8.47" y1="2.89" x2="14.96" y2="9.62" gradientUnits="userSpaceOnUse">
      <stop offset="0" stop-color="#dfa500"/>
      <stop offset="0.28" stop-color="#efb700"/>
      <stop offset="0.51" stop-color="#ffca00"/>
      <stop offset="1" stop-color="#e1a800"/>
    </linearGradient>
    <linearGradient id="ab9f452c-d59c-4813-b9db-ac7f1a29f09a" x1="6.86" y1="11.19" x2="-0.99" y2="18.81" gradientUnits="userSpaceOnUse">
      <stop offset="0" stop-color="#faa21d"/>
      <stop offset="0.24" stop-color="#f99d1a"/>
      <stop offset="0.51" stop-color="#f69012"/>
      <stop offset="0.8" stop-color="#f17905"/>
      <stop offset="0.88" stop-color="#ef7100"/>
    </linearGradient>
  </defs>
  <title>Icon-general-10</title>
  <g>
    <path d="M4.07,10.44a5.66,5.66,0,0,0-3-1.14.28.28,0,0,1-.27-.41A5.35,5.35,0,0,1,2.31,7.18a4.87,4.87,0,0,1,4.4-.85,1.67,1.67,0,0,1,.62.27Z" fill="#f78d1e"/>
    <path d="M7.7,14.06l3.84-3.26a1.82,1.82,0,0,1,.27.63,4.91,4.91,0,0,1-.86,4.4,5.21,5.21,0,0,1-1.71,1.48A.28.28,0,0,1,8.83,17,5.73,5.73,0,0,0,7.7,14.06Z" fill="#f78d1e"/>
    <path d="M17.38.27A24.27,24.27,0,0,0,4,10.31L7.69,14A24.27,24.27,0,0,0,17.73.62.29.29,0,0,0,17.38.27Z" fill="#fcd116"/>
    <path d="M17.38.27A24.27,24.27,0,0,0,4,10.31L7.69,14A24.27,24.27,0,0,0,17.73.62.29.29,0,0,0,17.38.27Z" fill="url(#e5071660-aef6-4ef7-b2c3-5b03145c6e10)"/>
    <path d="M17.38.27A22,22,0,0,0,12.93,2.1l3,3A22,22,0,0,0,17.73.62.29.29,0,0,0,17.38.27Z" fill="#0078d4"/>
    <path d="M.26,17.44A10.32,10.32,0,0,1,4,10.31L7.69,14A10.32,10.32,0,0,1,.56,17.74.28.28,0,0,1,.26,17.44Z" fill="url(#ab9f452c-d59c-4813-b9db-ac7f1a29f09a)"/>
    <circle cx="11.42" cy="6.58" r="1.91" fill="#dfa500"/>
    <circle cx="11.42" cy="6.58" r="1.43" fill="#f2f2f2"/>
    <path d="M5.16,13.59a3,3,0,0,1-1.33.59,3.3,3.3,0,0,1,.58-1.34L8,9.24l.75.75Z" fill="#d15900"/>
  </g>
</svg>
